X: 36905
T: Shoot The Donkey
R: mazurka
M: 3/4
K: Gmajor
|:G>A|B2 D2 G>A|B2 D2 G>A|B2 E2 D2|A2 D2 F>G|
A2 D2 F>G|A2 D2 F>G|A2 e2 F2|G4:|
|:B>c|d2 g2 f2|c2 E2 (3GAB|c2 e2 d2|B2 D2 G>A|
B2 (3ABA G2|c4 e>c|(3ded E2 F2|G4:|

